resources/svg/first-aid-kit-line.svg

<svg fill="currentColor" viewBox="0 0 24 24" xmlns="http://www.w3.org/2000/svg"><path d="M16 1C16.5523 1 17 1.44772 17 2V5H21C21.5523 5 22 5.44772 22 6V20C22 20.5523 21.5523 21 21 21H3C2.44772 21 2 20.5523 2 20V6C2 5.44772 2.44772 5 3 5H7V2C7 1.44772 7.44772 1 8 1H16ZM20 7H4V19H20V7ZM13 9V12H16V14H12.999L13 17H11L10.999 14H8V12H11V9H13ZM15 3H9V5H15V3Z"/></svg>

<svg xmlns="http://www.w3.org/2000/svg" viewBox="0 0 24 24" fill="currentColor">
    <g>
        <path fill="none" d="M0 0H24V24H0z"/>
        <path d="M16 1c.552 0 1 .448 1 1v3h4c.552 0 1 .448 1 1v14c0 .552-.448 1-1 1H3c-.552 0-1-.448-1-1V6c0-.552.448-1 1-1h4V2c0-.552.448-1 1-1h8zm4 6H4v12h16V7zm-7 2v3h3v2h-3.001L13 17h-2l-.001-3H8v-2h3V9h2zm2-6H9v2h6V3z"/>
    </g>
</svg>
